X: 8964
T: Cuttie's Wedding
R: strathspey
M: 4/4
K: Aminor
|:A<A c2 e/d/c/B/ c2|A<A c>d e<A c<e|A<A c2 e/d/c/B/ c2|G<G B>G d>G G<d:|
c>g g>a g<c e2|c>g g>a g<c e<g|c>g g>a g<c e2|G<G B>G d>G G<d|
c>g g>a g<c e2|c>g g>a g<c e<g|a>f g>e f<d e<c|d<G B>G d>G G<d||

